assets/icons/ic_edit.svg

<svg fill="none" height="19" viewBox="0 0 19 19" width="19" xmlns="http://www.w3.org/2000/svg"><path d="m11.06 6.52.92.92-9.06 9.06h-.92v-.92zm3.6-6.02c-.25 0-.51.1-.7.29l-1.83 1.83 3.75 3.75 1.83-1.83c.39-.39.39-1.02 0-1.41l-2.34-2.34c-.2-.2-.45-.29-.71-.29zm-3.6 3.19-11.06 11.06v3.75h3.75l11.06-11.06z" fill="#cbd5e1"/></svg>

<svg width="19" height="19" viewBox="0 0 19 19" fill="none" xmlns="http://www.w3.org/2000/svg">
<path d="M11.06 6.52L11.98 7.44L2.92 16.5H2V15.58L11.06 6.52ZM14.66 0.5C14.41 0.5 14.15 0.6 13.96 0.79L12.13 2.62L15.88 6.37L17.71 4.54C18.1 4.15 18.1 3.52 17.71 3.13L15.37 0.79C15.17 0.59 14.92 0.5 14.66 0.5ZM11.06 3.69L0 14.75V18.5H3.75L14.81 7.44L11.06 3.69Z" fill="#CBD5E1"/>
</svg>
